src/assets/images/guide.svg

<svg height="98" viewBox="0 0 98 98" width="98" xmlns="http://www.w3.org/2000/svg"><g fill="none" transform="translate(9.963333 9.963333)"><g fill="#4d4d4d"><path d="m16.17 29.0733333c4.5733333 0 8.33 3.7566667 8.33 8.33h2.94c0-6.2066666-5.0633333-11.27-11.27-11.27zm-8.33 8.33c0-4.5733333 3.7566667-8.33 8.33-8.33v-2.94c-6.20666667 0-11.27 5.0633334-11.27 11.27zm8.33 8.33c-4.5733333 0-8.33-3.7566666-8.33-8.33h-2.94c0 6.2066667 5.06333333 11.27 11.27 11.27zm8.33-8.33c0 4.5733334-3.7566667 8.33-8.33 8.33v2.94c6.2066667 0 11.27-5.0633333 11.27-11.27z"/><path d="m5.88117417 32.5103189h29.39912163v2.9399122h-29.39912163z" transform="matrix(.96592886 -.25880773 .25880773 .96592886 -8.093149 6.4842)"/><path d="m32.34 74.97v-.6533333h-2.94v.6533333zm-30.87 1.47h29.4v-2.94h-29.4zm-1.47-3.1033333v1.6333333h2.94v-1.6333333zm16.17-22.7033334c-8.98333333 0-16.17 7.1866667-16.17 16.17h2.94c0-7.35 5.88-13.23 13.23-13.23zm0 2.94c7.35 0 13.23 5.88 13.23 13.23h2.94c0-8.9833333-7.1866667-16.17-16.17-16.17zm-13.23 19.7633334v-6.5333334h-2.94v6.5333334zm26.46-6.5333334v7.5133334h2.94v-7.5133334zm1.47 8.1666667v1.47h1.47v-1.47zm-29.4 0h-1.47v1.47h1.47zm0-8.1666667h-1.47zm0 6.5333334h1.47z"/><path d="m78.0733333 74.97v-1.6333333h-2.94v1.6333333zm-30.87 1.47h29.4v-2.94h-29.4zm-1.47-3.1033333v1.6333333h2.94v-1.6333333zm16.17-19.4366667c-8.9833333 0-16.17 7.1866667-16.17 16.17h2.94c0-7.35 5.88-13.23 13.23-13.23zm0 2.94c7.35 0 13.23 5.88 13.23 13.23h2.94c0-8.9833333-7.1866666-16.17-16.17-16.17zm-13.23 16.4966667v-3.2666667h-2.94v3.2666667zm26.46-3.2666667v3.2666667h2.94v-3.2666667zm1.47 4.9v1.47h1.47v-1.47zm-29.4 0h-1.47v1.47h1.47z"/><path d="m53.9 1.47h2.94v55.533333h-2.94z"/></g><path d="m24.3366667 68.4366667c-4.5733334 0-8.1666667-3.5933334-8.1666667-8.1666667h-9.8c0 9.9633333 8.0033333 17.9666667 17.9666667 17.9666667zm8.1666666-8.1666667c0 4.5733333-3.5933333 8.1666667-8.1666666 8.1666667v9.8c9.9633333 0 17.9666666-8.0033334 17.9666666-17.9666667z" fill="#fff"/><path d="m38.8733333 60.27v-4.0833333h-2.94v4.0833333zm-14.5366666 11.5966667c-6.37 0-11.5966667-5.2266667-11.5966667-11.5966667h-2.94c0 8.0033333 6.5333333 14.5366667 14.5366667 14.5366667zm11.5966666-11.5966667c0 6.37-5.2266666 11.5966667-11.5966666 11.5966667v2.94c8.0033333 0 14.5366666-6.5333334 14.5366666-14.5366667z" fill="#4d4d4d"/><path d="m39.0366667 39.2c-2.6133334 0-4.7366667 2.1233333-4.7366667 4.7366667h2.94c0-.98.8166667-1.7966667 1.7966667-1.7966667zm3.2666666 2.94c.98 0 1.7966667.8166667 1.7966667 1.7966667h2.94c0-2.6133334-2.1233333-4.7366667-4.7366667-4.7366667zm1.7966667 11.5966667c0 .98-.8166667 1.7966666-1.7966667 1.7966666v2.94c2.6133334 0 4.7366667-2.1233333 4.7366667-4.7366666zm-5.0633333 1.7966666c-.98 0-1.7966667-.8166666-1.7966667-1.7966666h-2.94c0 2.6133333 2.1233333 4.7366666 4.7366667 4.7366666zm-1.7966667-1.7966666v-9.8h-2.94v9.8zm5.0633333 1.7966666h-3.2666666v2.94h3.2666666zm1.7966667-11.5966666v9.8h2.94v-9.8zm-5.0633333-1.7966667h3.2666666v-2.94h-3.2666666z" fill="#4d4d4d"/><path d="m39.036667 43.936667h3.266667v2.94h-3.266667z" fill="#4d4d4d"/><circle cx="61.903333" cy="40.67" fill="#fff" r="9.8"/><path d="m61.9033333 32.34c4.5733334 0 8.33 3.7566667 8.33 8.33h2.94c0-6.2066667-5.0633333-11.27-11.27-11.27zm-8.33 8.33c0-4.5733333 3.7566667-8.33 8.33-8.33v-2.94c-6.2066666 0-11.27 5.0633333-11.27 11.27zm8.33 8.33c-4.5733333 0-8.33-3.7566667-8.33-8.33h-2.94c0 6.2066667 5.0633334 11.27 11.27 11.27zm8.33-8.33c0 4.5733333-3.7566666 8.33-8.33 8.33v2.94c6.2066667 0 11.27-5.0633333 11.27-11.27z" fill="#4d4d4d"/><path d="m52.1033333 42.4666667c6.37 0 11.5966667-5.2266667 11.5966667-11.5966667h2.94c0 8.0033333-6.5333333 14.5366667-14.5366667 14.5366667z" fill="#4d4d4d"/><path d="m53.9 12.9033333v-11.4333333h2.94v11.4333333zm-23.03 6.6966667c3.1033333 0 5.2266667-.49 7.0233333-1.1433333 1.6333334-.6533334 2.94-1.6333334 4.41-2.6133334s2.94-2.1233333 5.0633334-2.94c2.1233333-.8166666 4.5733333-1.3066666 8.0033333-1.3066666v2.94c-3.1033333 0-5.2266667.49-7.0233333 1.1433333-1.6333334.6533333-2.94 1.6333333-4.41 2.6133333s-2.94 2.1233334-5.0633334 2.94c-2.1233333.8166667-4.5733333 1.3066667-8.0033333 1.3066667zm1.47-9.96333333v11.43333333h-2.94v-11.43333333zm23.03-6.69666667c-3.1033333 0-5.2266667.49-7.0233333 1.14333333-1.6333334.65333334-2.94 1.63333334-4.41 2.61333334s-2.94 2.12333333-5.0633334 2.94c-2.1233333.81666663-4.5733333 1.30666663-8.0033333 1.30666663v-2.93999997c3.1033333 0 5.2266667-.49 7.0233333-1.14333333 1.6333334-.65333333 2.94-1.63333333 4.41-2.61333333s2.94-2.12333334 5.0633334-2.94c2.1233333-.81666667 4.5733333-1.30666667 8.0033333-1.30666667zm0 9.9633333h1.47v1.47h-1.47zm-24.5 8.1666667v1.47h-1.47v-1.47zm0-11.43333333h-1.47v-1.47h1.47zm24.5-8.16666667v-1.47h1.47v1.47z" fill="#4d4d4d"/></g></svg>

<?xml version="1.0" encoding="UTF-8"?>
<svg width="98px" height="98px" viewBox="0 0 98 98" version="1.1" xmlns="http://www.w3.org/2000/svg" xmlns:xlink="http://www.w3.org/1999/xlink">
    <title>Group 4</title>
    <g id="Design" stroke="none" stroke-width="1" fill="none" fill-rule="evenodd">
        <g id="ТУР" transform="translate(-736.000000, -940.000000)" fill-rule="nonzero">
            <g id="Group-4" transform="translate(736.000000, 940.000000)">
                <g id="Group-2" transform="translate(9.963333, 9.963333)">
                    <path d="M16.17,29.0733333 C20.7433333,29.0733333 24.5,32.83 24.5,37.4033333 L27.44,37.4033333 C27.44,31.1966667 22.3766667,26.1333333 16.17,26.1333333 L16.17,29.0733333 L16.17,29.0733333 Z M7.84,37.4033333 C7.84,32.83 11.5966667,29.0733333 16.17,29.0733333 L16.17,26.1333333 C9.96333333,26.1333333 4.9,31.1966667 4.9,37.4033333 L7.84,37.4033333 Z M16.17,45.7333333 C11.5966667,45.7333333 7.84,41.9766667 7.84,37.4033333 L4.9,37.4033333 C4.9,43.61 9.96333333,48.6733333 16.17,48.6733333 L16.17,45.7333333 L16.17,45.7333333 Z M24.5,37.4033333 C24.5,41.9766667 20.7433333,45.7333333 16.17,45.7333333 L16.17,48.6733333 C22.3766667,48.6733333 27.44,43.61 27.44,37.4033333 L24.5,37.4033333 Z" id="Shape" fill="#4D4D4D"></path>
                    <polygon id="Rectangle" fill="#4D4D4D" transform="translate(20.580735, 33.980275) rotate(-14.999329) translate(-20.580735, -33.980275) " points="5.88117417 32.5103189 35.2802958 32.5103189 35.2802958 35.4502311 5.88117417 35.4502311"></polygon>
                    <path d="M32.34,74.97 L32.34,74.3166667 L29.4,74.3166667 L29.4,74.97 L32.34,74.97 Z M1.47,76.44 L30.87,76.44 L30.87,73.5 L1.47,73.5 L1.47,76.44 Z M0,73.3366667 L0,74.97 L2.94,74.97 L2.94,73.3366667 L0,73.3366667 Z M16.17,50.6333333 C7.18666667,50.6333333 0,57.82 0,66.8033333 L2.94,66.8033333 C2.94,59.4533333 8.82,53.5733333 16.17,53.5733333 L16.17,50.6333333 L16.17,50.6333333 Z M16.17,53.5733333 C23.52,53.5733333 29.4,59.4533333 29.4,66.8033333 L32.34,66.8033333 C32.34,57.82 25.1533333,50.6333333 16.17,50.6333333 L16.17,53.5733333 L16.17,53.5733333 Z M2.94,73.3366667 L2.94,66.8033333 L2.33146835e-14,66.8033333 L2.33146835e-14,73.3366667 L2.94,73.3366667 Z M29.4,66.8033333 L29.4,74.3166667 L32.34,74.3166667 L32.34,66.8033333 L29.4,66.8033333 Z M30.87,74.97 L30.87,76.44 L32.34,76.44 L32.34,74.97 L30.87,74.97 Z M1.47,74.97 L-5.55111512e-17,74.97 L-5.55111512e-17,76.44 L1.47,76.44 L1.47,74.97 Z M1.47,66.8033333 L-5.55111512e-17,66.8033333 L1.47,66.8033333 Z M1.47,73.3366667 L2.94,73.3366667 L1.47,73.3366667 Z" id="Shape" fill="#4D4D4D"></path>
                    <path d="M78.0733333,74.97 L78.0733333,73.3366667 L75.1333333,73.3366667 L75.1333333,74.97 L78.0733333,74.97 Z M47.2033333,76.44 L76.6033333,76.44 L76.6033333,73.5 L47.2033333,73.5 L47.2033333,76.44 Z M45.7333333,73.3366667 L45.7333333,74.97 L48.6733333,74.97 L48.6733333,73.3366667 L45.7333333,73.3366667 Z M61.9033333,53.9 C52.92,53.9 45.7333333,61.0866667 45.7333333,70.07 L48.6733333,70.07 C48.6733333,62.72 54.5533333,56.84 61.9033333,56.84 L61.9033333,53.9 Z M61.9033333,56.84 C69.2533333,56.84 75.1333333,62.72 75.1333333,70.07 L78.0733333,70.07 C78.0733333,61.0866667 70.8866667,53.9 61.9033333,53.9 L61.9033333,56.84 Z M48.6733333,73.3366667 L48.6733333,70.07 L45.7333333,70.07 L45.7333333,73.3366667 L48.6733333,73.3366667 Z M75.1333333,70.07 L75.1333333,73.3366667 L78.0733333,73.3366667 L78.0733333,70.07 L75.1333333,70.07 Z M76.6033333,74.97 L76.6033333,76.44 L78.0733333,76.44 L78.0733333,74.97 L76.6033333,74.97 Z M47.2033333,74.97 L45.7333333,74.97 L45.7333333,76.44 L47.2033333,76.44 L47.2033333,74.97 Z" id="Shape" fill="#4D4D4D"></path>
                    <rect id="Rectangle" fill="#4D4D4D" x="53.9" y="1.47" width="2.94" height="55.5333333"></rect>
                    <path d="M24.3366667,68.4366667 C19.7633333,68.4366667 16.17,64.8433333 16.17,60.27 L6.37,60.27 C6.37,70.2333333 14.3733333,78.2366667 24.3366667,78.2366667 L24.3366667,68.4366667 Z M32.5033333,60.27 C32.5033333,64.8433333 28.91,68.4366667 24.3366667,68.4366667 L24.3366667,78.2366667 C34.3,78.2366667 42.3033333,70.2333333 42.3033333,60.27 L32.5033333,60.27 Z" id="Shape" fill="#FFFFFF"></path>
                    <path d="M38.8733333,60.27 L38.8733333,56.1866667 L35.9333333,56.1866667 L35.9333333,60.27 L38.8733333,60.27 Z M24.3366667,71.8666667 C17.9666667,71.8666667 12.74,66.64 12.74,60.27 L9.8,60.27 C9.8,68.2733333 16.3333333,74.8066667 24.3366667,74.8066667 L24.3366667,71.8666667 L24.3366667,71.8666667 Z M35.9333333,60.27 C35.9333333,66.64 30.7066667,71.8666667 24.3366667,71.8666667 L24.3366667,74.8066667 C32.34,74.8066667 38.8733333,68.2733333 38.8733333,60.27 L35.9333333,60.27 Z" id="Shape" fill="#4D4D4D"></path>
                    <path d="M39.0366667,39.2 C36.4233333,39.2 34.3,41.3233333 34.3,43.9366667 L37.24,43.9366667 C37.24,42.9566667 38.0566667,42.14 39.0366667,42.14 L39.0366667,39.2 L39.0366667,39.2 Z M42.3033333,42.14 C43.2833333,42.14 44.1,42.9566667 44.1,43.9366667 L47.04,43.9366667 C47.04,41.3233333 44.9166667,39.2 42.3033333,39.2 L42.3033333,42.14 L42.3033333,42.14 Z M44.1,53.7366667 C44.1,54.7166667 43.2833333,55.5333333 42.3033333,55.5333333 L42.3033333,58.4733333 C44.9166667,58.4733333 47.04,56.35 47.04,53.7366667 L44.1,53.7366667 Z M39.0366667,55.5333333 C38.0566667,55.5333333 37.24,54.7166667 37.24,53.7366667 L34.3,53.7366667 C34.3,56.35 36.4233333,58.4733333 39.0366667,58.4733333 L39.0366667,55.5333333 L39.0366667,55.5333333 Z M37.24,53.7366667 L37.24,43.9366667 L34.3,43.9366667 L34.3,53.7366667 L37.24,53.7366667 Z M42.3033333,55.5333333 L39.0366667,55.5333333 L39.0366667,58.4733333 L42.3033333,58.4733333 L42.3033333,55.5333333 Z M44.1,43.9366667 L44.1,53.7366667 L47.04,53.7366667 L47.04,43.9366667 L44.1,43.9366667 Z M39.0366667,42.14 L42.3033333,42.14 L42.3033333,39.2 L39.0366667,39.2 L39.0366667,42.14 Z" id="Shape" fill="#4D4D4D"></path>
                    <rect id="Rectangle" fill="#4D4D4D" x="39.0366667" y="43.9366667" width="3.26666667" height="2.94"></rect>
                    <circle id="Oval" fill="#FFFFFF" cx="61.9033333" cy="40.67" r="9.8"></circle>
                    <path d="M61.9033333,32.34 C66.4766667,32.34 70.2333333,36.0966667 70.2333333,40.67 L73.1733333,40.67 C73.1733333,34.4633333 68.11,29.4 61.9033333,29.4 L61.9033333,32.34 Z M53.5733333,40.67 C53.5733333,36.0966667 57.33,32.34 61.9033333,32.34 L61.9033333,29.4 C55.6966667,29.4 50.6333333,34.4633333 50.6333333,40.67 L53.5733333,40.67 Z M61.9033333,49 C57.33,49 53.5733333,45.2433333 53.5733333,40.67 L50.6333333,40.67 C50.6333333,46.8766667 55.6966667,51.94 61.9033333,51.94 L61.9033333,49 Z M70.2333333,40.67 C70.2333333,45.2433333 66.4766667,49 61.9033333,49 L61.9033333,51.94 C68.11,51.94 73.1733333,46.8766667 73.1733333,40.67 L70.2333333,40.67 Z" id="Shape" fill="#4D4D4D"></path>
                    <path d="M52.1033333,42.4666667 C58.4733333,42.4666667 63.7,37.24 63.7,30.87 L66.64,30.87 C66.64,38.8733333 60.1066667,45.4066667 52.1033333,45.4066667 L52.1033333,42.4666667 Z" id="Path" fill="#4D4D4D"></path>
                    <path d="M53.9,12.9033333 L53.9,1.47 L56.84,1.47 L56.84,12.9033333 L53.9,12.9033333 Z M30.87,19.6 C33.9733333,19.6 36.0966667,19.11 37.8933333,18.4566667 C39.5266667,17.8033333 40.8333333,16.8233333 42.3033333,15.8433333 C43.7733333,14.8633333 45.2433333,13.72 47.3666667,12.9033333 C49.49,12.0866667 51.94,11.5966667 55.37,11.5966667 L55.37,14.5366667 C52.2666667,14.5366667 50.1433333,15.0266667 48.3466667,15.68 C46.7133333,16.3333333 45.4066667,17.3133333 43.9366667,18.2933333 C42.4666667,19.2733333 40.9966667,20.4166667 38.8733333,21.2333333 C36.75,22.05 34.3,22.54 30.87,22.54 L30.87,19.6 Z M32.34,9.63666667 L32.34,21.07 L29.4,21.07 L29.4,9.63666667 L32.34,9.63666667 Z M55.37,2.94 C52.2666667,2.94 50.1433333,3.43 48.3466667,4.08333333 C46.7133333,4.73666667 45.4066667,5.71666667 43.9366667,6.69666667 C42.4666667,7.67666667 40.9966667,8.82 38.8733333,9.63666667 C36.75,10.4533333 34.3,10.9433333 30.87,10.9433333 L30.87,8.00333333 C33.9733333,8.00333333 36.0966667,7.51333333 37.8933333,6.86 C39.5266667,6.20666667 40.8333333,5.22666667 42.3033333,4.24666667 C43.7733333,3.26666667 45.2433333,2.12333333 47.3666667,1.30666667 C49.49,0.49 51.94,2.72848411e-12 55.37,2.72848411e-12 L55.37,2.94 Z M55.37,12.9033333 L56.84,12.9033333 L56.84,14.3733333 L55.37,14.3733333 L55.37,12.9033333 Z M30.87,21.07 L30.87,22.54 L29.4,22.54 L29.4,21.07 L30.87,21.07 Z M30.87,9.63666667 L29.4,9.63666667 L29.4,8.16666667 L30.87,8.16666667 L30.87,9.63666667 Z M55.37,1.47 L55.37,2.72849798e-12 L56.84,2.72849798e-12 L56.84,1.47 L55.37,1.47 Z" id="Shape" fill="#4D4D4D"></path>
                </g>
            </g>
        </g>
    </g>
</svg>
